X: 57
T: Motet cycle Ave mundi domina &mdash; 6. Quem terra, ponthus, aethera
C: Gaspar van Weerbeke
%%abc-version 2.0
%%abcx-abcm2ps-target-version 5.9.1 (29 Sep 2008)
%%abc-creator hum2abc beta
%%abcx-conversion-date 2022/03/06 13:05:54
%%abc-copyright Copyright 2021, Pavanello, Agnese
%%abc-edited-by Sapp, Craig Stuart
%%abc-edited-by Wissmann, Rolf
%%humdrum-veritas 753134998
%%humdrum-veritas-data 2626560841
%%linebreak <none>
%%barnumbers 0
L: 1/4
M: C|
N: Derived from Gas0301f-Ave_mundi_domina-Quem_terra_pontus.krn
Q: 1/2=160
%%staves [1 2 3 4]
V: 1 clef=treble
V: 2 clef=treble-8
V: 3 clef=treble-8
V: 4 clef=bass
K: F
[V:1] z8 | 
[V:2] G4D3E | 
[V:3] z8 | 
[V:4] G,,4G,,2G,,2 | 
[V:1] z8 | 
[V:2] F2F2F2F2 | 
[V:3] z8 | 
[V:4] D,2D,2D,2D,2 | 
[V:1] G4D3E | 
[V:2] G4z4 | 
[V:3] G4G2G2 | 
[V:4] G,,2G,,2G,,2G,2 | 
[V:1] F2F2F2F2 | 
[V:2] z8 | 
[V:3] d2d2d2d2 | 
[V:4] D,2D,2D,2D,2 | 
[V:1] G2G2B2B2 | 
[V:2] d4g2g2 | 
[V:3] G2G2d2d2 | 
[V:4] G,2G,2G,2B,2 | 
[V:1] A2F2G2G2 | 
[V:2] f2f2d3d | 
[V:3] c2A2B3B | 
[V:4] F,2F,2G,2G,2 | 
[V:1] A2A2B2A2 | 
[V:2] d2d2d2f2 | 
[V:3] A2A2G2A2 | 
[V:4] D,4G,2F,2 | 
[V:1] G2G2A3G | 
[V:2] d2>e2f3c | 
[V:3] B2B2c3B | 
[V:4] G,4F,4- | 
[V:1] F2E4D2- | 
[V:2] c6A2- | 
[V:3] A2G2A2F2 | 
[V:4] F,2C,4D,2 | 
[V:1] D2^C2D4 | 
[V:2] A4F4 | 
[V:3] E4D4 | 
[V:4] A,,4D,4 | 
[V:1] z2F2F2F2 | 
[V:2] z2d2d2d2 | 
[V:3] z2A2A2A2 | 
[V:4] z2D,2D,2D,2 | 
[V:1] F2E2F3F | 
[V:2] d2G2A3A | 
[V:3] A2c2d3d | 
[V:4] D,2E,2D,3D, | 
[V:1] F2A2B2A2 | 
[V:2] A2F2f2f2 | 
[V:3] d2d2d2c2 | 
[V:4] D,2F,2B,,2F,2 | 
[V:1] G2G2^F2F2 | 
[V:2] d2c2d3d | 
[V:3] B2G2A2A2 | 
[V:4] G,2_E,2D,2D,2 | 
[V:1] (3:2:5G2z2G2G2G2 | 
[V:2] d6z2 | 
[V:3] (3:2:5G2z2G2G2B2 | 
[V:4] G,,6z2 | 
[V:1] (3:2:5F2G2F2D2E2 | 
[V:2] z8 | 
[V:3] (3:2:4A2G2B2c2 | 
[V:4] z8 | 
[V:1] (3:2:4D2E2F2G2 | 
[V:2] z8 | 
[V:3] (3:2:4d2c2d2_e2 | 
[V:4] z8 | 
[V:1] (3:2:5B2A2G2E2^F2 | 
[V:2] z8 | 
[V:3] (3:2:5d2c2B2G2A2 | 
[V:4] z8 | 
[V:1] (3:2:2G2z2z4 | 
[V:2] z8 | 
[V:3] (3:2:5G2z2G2G2G2 | 
[V:4] z4(3G,,2G,,2B,,2 | 
[V:1] z8 | 
[V:2] z8 | 
[V:3] (3:2:5F2G2F2D2E2 | 
[V:4] (3:2:4A,,2G,,2B,,2C,2 | 
[V:1] z8 | 
[V:2] z8 | 
[V:3] (3:2:4D2c2d2c2 | 
[V:4] (3:2:4D,2E,2F,2E,2 | 
[V:1] z8 | 
[V:2] z8 | 
[V:3] (3:2:4B2A2G2^F2 | 
[V:4] (3:2:5D,2C,2B,,2G,,2A,,2 | 
[V:1] G4(3:2:2B2B2 | 
[V:2] d4(3:2:2g2g2 | 
[V:3] G4z4 | 
[V:4] G,,4z4 | 
[V:1] (3:2:5A2d2c2>B2c2 | 
[V:2] (3:2:4f2d2e2e2 | 
[V:3] z8 | 
[V:4] z8 | 
[V:1] (3:2:6d2>c2A2B2G2B2 | 
[V:2] (3:2:4d2d2g2g2 | 
[V:3] z8 | 
[V:4] z8 | 
[V:1] (3A2F2A2(3G2>F2_E2 | 
[V:2] (3:2:5f2d2_e2>B2c2 | 
[V:3] z8 | 
[V:4] z8 | 
[V:1] D4z4 | 
[V:2] (3:2:6d2>c2A2B2G2B2 | 
[V:3] D4(3:2:2G2G2 | 
[V:4] z8 | 
[V:1] z8 | 
[V:2] (3:2:5A2B2c2>B2c2 | 
[V:3] (3:2:4F2D2E2E2 | 
[V:4] z8 | 
[V:1] z8 | 
[V:2] d4z4 | 
[V:3] (3:2:4D2d2d2c2 | 
[V:4] D,4(3:2:2F,2E,2 | 
[V:1] z8 | 
[V:2] z8 | 
[V:3] (3:2:5B2A2B2>A2G2 | 
[V:4] (3:2:5D,2C,2D,2>C,2B,,2 | 
[V:1] z8 | 
[V:2] z8 | 
[V:3] (3:2:5A2c2B2>A2G2 | 
[V:4] (3:2:4A,,2>G,,4G,,2B,,2 | 
[V:1] z8 | 
[V:2] z8 | 
[V:3] (3:2:5F2G2F2D2E2 | 
[V:4] (3:2:4A,,2G,,2B,,2C,2 | 
[V:1] F4(3:2:2A2c2 | 
[V:2] d4(3:2:2f2e2 | 
[V:3] (3:2:2D2z2z4 | 
[V:4] (3:2:2D,2z2z4 | 
[V:1] (3:2:5B2A2G2>E2^F2 | 
[V:2] (3:2:5d2c2B2G2A2 | 
[V:3] z8 | 
[V:4] z8 | 
[V:1] (3:2:5G2z2G2G2G2 | 
[V:2] (3:2:2G2z2z4 | 
[V:3] z4(3G2G2B2 | 
[V:4] z8 | 
[V:1] (3:2:2F2G2z4 | 
[V:2] z4(3G2G2G2 | 
[V:3] (3:2:2A2G2z4 | 
[V:4] z4(3G,,2G,,2B,,2 | 
[V:1] z4(3G2G2G2 | 
[V:2] (3:2:5F2G2d2d2d2 | 
[V:3] z4(3G2G2B2 | 
[V:4] (3:2:5A,,2G,,2G,,2G,,2G,,2 | 
[V:1] (3:2:4F2G2G2G2 | 
[V:2] (3:2:4d2d2d2G2 | 
[V:3] (3:2:4A2G2B2c2 | 
[V:4] (3:2:4D,2G,,2G,2E,2 | 
[V:1] (3:2:4F2E2F2G2 | 
[V:2] (3:2:4A2G2A2E2 | 
[V:3] (3:2:4d2c2d2e2 | 
[V:4] (3:2:4D,2E,2D,2C,2 | 
[V:1] (3:2:5B2A2G2>_E2F2 | 
[V:2] (3:2:5F2A2B2_e2d2 | 
[V:3] (3:2:5d2c2B2c2A2 | 
[V:4] (3:2:5B,,2F,2G,2C,2D,2 | 
[V:1] (3:2:8G2>A2 B c2<d2c B A | 
[V:2] (3:2:4B2G2d2d2 | 
[V:3] (3:2:6G2z2G2>A2 B c | 
[V:4] (3:2:5_E,2>F,2G,2G,,2G,2 | 
[V:1] (3:2:4B2A2G2^F2 | 
[V:2] (3:2:2f2d2 | 
[V:3] (3:2:4d2c2B2A2 | 
[V:4] (3:2:4D,2F,2G,2D,2 | 
[V:1] G8 |]  
[V:2] d8 |]  
[V:3] G8 |]  
[V:4] G,,8 |]  


